scratch/no-smoking.svg

<?xml version="1.0" encoding="UTF-8" standalone="no"?>
<!-- Created with Inkscape (http://www.inkscape.org/) -->

<svg
   width="10mm"
   height="10mm"
   viewBox="0 0 10 10"
   version="1.1"
   id="svg18964"
   inkscape:version="1.2.1 (9c6d41e410, 2022-07-14)"
   sodipodi:docname="no-smoking.svg"
   xmlns:inkscape="http://www.inkscape.org/namespaces/inkscape"
   xmlns:sodipodi="http://sodipodi.sourceforge.net/DTD/sodipodi-0.dtd"
   xmlns="http://www.w3.org/2000/svg"
   xmlns:svg="http://www.w3.org/2000/svg">
  <sodipodi:namedview
     id="namedview18966"
     pagecolor="#505050"
     bordercolor="#ffffff"
     borderopacity="1"
     inkscape:pageshadow="0"
     inkscape:pageopacity="0"
     inkscape:pagecheckerboard="1"
     inkscape:document-units="mm"
     showgrid="false"
     inkscape:zoom="22.627417"
     inkscape:cx="34.913397"
     inkscape:cy="12.042912"
     inkscape:window-width="2560"
     inkscape:window-height="1361"
     inkscape:window-x="-9"
     inkscape:window-y="464"
     inkscape:window-maximized="1"
     inkscape:current-layer="layer1"
     inkscape:showpageshadow="0"
     inkscape:deskcolor="#505050" />
  <defs
     id="defs18961" />
  <g
     inkscape:label="Layer 1"
     inkscape:groupmode="layer"
     id="layer1">
    <path
       id="circle60610"
       style="color:#000000;fill:#ffffff;stroke-width:0.999999;-inkscape-stroke:none"
       d="M 5.0002116,0 C 2.2439843,-1.2084988e-8 0,2.2439843 0,5.0002116 c 6.042464e-8,2.7562172 2.2439843,4.9996948 5.0002116,4.9996948 2.7562172,0 4.9996948,-2.2434776 4.9996948,-4.9996948 C 9.9999064,2.2439843 7.7564288,0 5.0002116,0 Z m 0,0.87694906 c 2.2821477,0 4.1227458,1.84110484 4.1227458,4.12326254 0,1.1440988 -0.4628331,2.1768697 -1.2118124,2.922819 L 6.3133097,6.3251953 H 7.1959432 V 5.1552409 H 5.1433553 L 2.0768758,2.0887614 C 2.8228351,1.3397621 3.8560927,0.87694906 5.0002116,0.87694906 Z M 5.3769328,1.5358236 c -0.3255597,0 -0.8136938,0.2892655 -0.8139038,0.8728149 0,0.3902996 0.2808669,0.7290368 0.6872965,0.8294067 0.1258499,0.03106 0.1276408,0.029163 0.1276408,0.1033529 0,0.0386 -0.0031,0.058035 -0.0031,0.096635 0,0.4154496 0.268879,0.5797343 0.5048788,0.6924642 l 0.5606893,0.00827 c 0.5935894,0.00896 0.6388195,0.014316 0.7555094,0.083716 0.06746,0.0401 0.1319584,0.1325508 0.1503784,0.2154907 0.00868,0.03911 0.01602,0.1659267 0.01602,0.2816366 0,0.1156998 0.00442,0.2144248 0.00982,0.2196248 0.00538,0.00522 0.071638,0.0093 0.1472779,0.0093 H 7.656897 V 4.6958374 C 7.656897,4.4209077 7.642365,4.3358447 7.574215,4.2059448 7.5232747,4.1088849 7.404003,3.9959826 7.3013631,3.9475627 7.1307833,3.8670927 7.1033825,3.8638051 6.5076131,3.8545451 5.8982337,3.8450651 5.8972465,3.8450957 5.8027466,3.7522257 5.7185967,3.6695258 5.6740723,3.551355 5.6740723,3.4313151 c 0,-0.1531998 0.080615,-0.2451713 0.080615,-0.3064412 0,-0.2721398 -0.7547142,0.045486 -0.885734,-0.6351034 -0.0055,-0.02854 -0.00827,-0.05781 -0.00827,-0.08785 0,-0.3071697 0.2806819,-0.5694743 0.4676717,-0.5694743 0.09339,0 0.1023194,-0.034016 0.1023194,-0.085266 v -0.084233 c 0,-0.09951 -0.00457,-0.127124 -0.053744,-0.127124 z m 0.4449341,0.2847371 c -0.00877,0 -0.01762,3.109e-4 -0.08785,0.00465 V 2.093929 c 0,1e-5 0.7064369,0.046659 0.7064169,0.6454387 -0.00146,0.3535096 -0.1803508,0.4649891 -0.1803508,0.576709 0,0.1183398 0.070296,0.1384928 0.3999756,0.1384928 0.3483896,0 0.4688244,0.018882 0.6397542,0.1002523 0.2155898,0.1026199 0.3850324,0.2996436 0.4707723,0.5472534 0.03751,0.1083599 0.039932,0.129755 0.044442,0.4480347 0.0026,0.1839198 0.011885,0.3922241 0.011885,0.3922241 0,0 0.013833,0.0062 0.1560629,0.0062 H 8.1318034 L 8.1245687,4.589384 C 8.1182787,4.2603143 8.1145502,4.218523 8.0796102,4.0912231 7.9495203,3.6174036 7.5852975,3.2773328 7.115328,3.1905029 c -0.06029,-0.01113 -0.1812843,-0.02067 -0.2692343,-0.02067 -0.1378098,0 -0.1689819,-0.00729 -0.1689819,-0.018604 0,-0.07724 0.07183,-0.1542631 0.07183,-0.3860229 0,-0.6348494 -0.5882456,-0.9446452 -0.9270749,-0.9446453 z m -4.4364218,1.1901082 2.144572,2.144572 H 1.6298747 v 1.1699544 h 3.0700968 l 2.289266,2.289266 C 6.3998581,8.9386809 5.7222509,9.1229574 5.0002116,9.1229574 c -2.2821577,0 -4.12326254,-1.8405981 -4.12326254,-4.1227458 0,-0.7220493 0.18427644,-1.4001732 0.50849604,-1.9895427 z m 5.9768962,2.144572 V 6.3251953 H 8.128186 V 5.1552409 Z"
       sodipodi:nodetypes="sssssssccccccssccssccccscscscscssscsssssscscsscccccccccssssccccccssccccccc" />
  </g>
</svg>

<?xml version="1.0" encoding="UTF-8" standalone="no"?>
<!-- Created with Inkscape (http://www.inkscape.org/) -->

<svg
   width="10mm"
   height="10mm"
   viewBox="0 0 10 10"
   version="1.1"
   id="svg18964"
   inkscape:version="1.1.2 (0a00cf5339, 2022-02-04, custom)"
   sodipodi:docname="no-smoking.svg"
   xmlns:inkscape="http://www.inkscape.org/namespaces/inkscape"
   xmlns:sodipodi="http://sodipodi.sourceforge.net/DTD/sodipodi-0.dtd"
   xmlns="http://www.w3.org/2000/svg"
   xmlns:svg="http://www.w3.org/2000/svg">
  <sodipodi:namedview
     id="namedview18966"
     pagecolor="#505050"
     bordercolor="#ffffff"
     borderopacity="1"
     inkscape:pageshadow="0"
     inkscape:pageopacity="0"
     inkscape:pagecheckerboard="1"
     inkscape:document-units="mm"
     showgrid="false"
     inkscape:zoom="6.2217172"
     inkscape:cx="96.998945"
     inkscape:cy="37.369105"
     inkscape:window-width="2560"
     inkscape:window-height="1361"
     inkscape:window-x="-9"
     inkscape:window-y="-9"
     inkscape:window-maximized="1"
     inkscape:current-layer="layer1" />
  <defs
     id="defs18961" />
  <g
     inkscape:label="Layer 1"
     inkscape:groupmode="layer"
     id="layer1">
    <path
       id="circle60610"
       style="-inkscape-stroke:none;color:#000000;fill:#ffffff;stroke-width:0.99999938599"
       d="M 5.00021 0 C 2.24398 -1.2085e-08 -6.26658e-16 2.24398 0 5.00021 C 6.04247e-08 7.75643 2.24398 9.99989 5.00021 9.99989 C 7.75643 9.99989 9.99989 7.75643 9.99989 5.00021 C 9.99989 2.24398 7.75643 -6.26658e-16 5.00021 0 Z M 5.00021 0.876948 C 7.28236 0.876948 9.12295 2.71805 9.12295 5.00021 C 9.12295 6.14431 8.66012 7.17707 7.91114 7.92302 L 6.3133 6.32519 L 7.19593 6.32519 L 7.19593 5.15523 L 5.14335 5.15523 L 2.07687 2.08876 C 2.82283 1.33976 3.85609 0.876948 5.00021 0.876948 Z M 5.37693 1.53582 C 5.05137 1.53582 4.56323 1.82509 4.56302 2.40864 C 4.56302 2.79894 4.84389 3.13767 5.25032 3.23804 C 5.37617 3.2691 5.37796 3.2672 5.37796 3.34139 C 5.37796 3.37999 5.37486 3.39943 5.37486 3.43803 C 5.37486 3.85348 5.64374 4.01776 5.87974 4.13049 L 6.44043 4.13876 C 7.03402 4.14772 7.07924 4.15308 7.19593 4.22248 C 7.26339 4.26258 7.32789 4.35503 7.34631 4.43797 C 7.35499 4.47708 7.36233 4.60389 7.36233 4.7196 C 7.36233 4.8353 7.36675 4.93403 7.37215 4.93923 C 7.37753 4.94445 7.44379 4.94853 7.51943 4.94853 L 7.65689 4.94853 L 7.65689 4.69583 C 7.65689 4.4209 7.64236 4.33584 7.57421 4.20594 C 7.52327 4.10888 7.40399 3.99598 7.30135 3.94756 C 7.13077 3.86709 7.10337 3.8638 6.5076 3.85454 C 5.89822 3.84506 5.89724 3.84509 5.80274 3.75222 C 5.71859 3.66952 5.67406 3.55135 5.67406 3.43131 C 5.67406 3.27811 5.75468 3.18614 5.75468 3.12487 C 5.75468 2.85273 4.99997 3.17036 4.86895 2.48977 C 4.86345 2.46123 4.86068 2.43196 4.86068 2.40192 C 4.86068 2.09475 5.14136 1.83244 5.32835 1.83244 C 5.42174 1.83244 5.43067 1.79843 5.43067 1.74718 C 5.43067 1.71471 5.43067 1.68665 5.43067 1.66295 C 5.43067 1.56344 5.4261 1.53582 5.37693 1.53582 Z M 5.82186 1.82056 C 5.81309 1.82056 5.80424 1.82087 5.73401 1.82521 L 5.73401 2.09393 C 5.73401 2.09394 6.44045 2.14058 6.44043 2.73936 C 6.43897 3.09287 6.26008 3.20435 6.26008 3.31607 C 6.26008 3.43441 6.33037 3.45457 6.66005 3.45457 C 7.00844 3.45457 7.12887 3.47345 7.2998 3.55482 C 7.51539 3.65744 7.68484 3.85446 7.77058 4.10207 C 7.80809 4.21043 7.81051 4.23182 7.81502 4.5501 C 7.81762 4.73402 7.82287 4.89889 7.8269 4.91649 C 7.83392 4.94712 7.84074 4.94853 7.98297 4.94853 L 8.13179 4.94853 L 8.12456 4.58938 C 8.11827 4.26031 8.11454 4.21852 8.0796 4.09122 C 7.94951 3.6174 7.58529 3.27733 7.11532 3.1905 C 7.05503 3.17937 6.93404 3.16983 6.84609 3.16983 C 6.70828 3.16983 6.6771 3.16253 6.6771 3.15122 C 6.6771 3.07398 6.74893 2.99696 6.74893 2.7652 C 6.74893 2.13035 6.16069 1.82056 5.82186 1.82056 Z M 1.38544 3.01067 L 3.53001 5.15523 L 1.62987 5.15523 L 1.62987 6.32519 L 4.69997 6.32519 L 6.98923 8.61445 C 6.39985 8.93867 5.72225 9.12295 5.00021 9.12295 C 2.71805 9.12295 0.876948 7.28236 0.876948 5.00021 C 0.876948 4.27816 1.06122 3.60004 1.38544 3.01067 Z M 7.36233 5.15523 L 7.36233 6.32519 L 7.65327 6.32519 L 7.65327 5.15523 L 7.36233 5.15523 Z M 7.83724 5.15523 L 7.83724 6.32519 L 8.12818 6.32519 L 8.12818 5.15523 L 7.83724 5.15523 Z" />
  </g>
</svg>
